X: 30882
T: Out On The Roof
R: waltz
M: 3/4
K: Bminor
|:FB B2cd|dB cd cA|FB B2 cd|fe ef ge|f3 f gf|
fe (3Bcd ec|1 d2 df ed|c3 d cA:|2 d2 de (3cBA|B3c de||
|:f2Bf gf|fe (3Bcd ec|d2 df ed|ce a3g|f3 f gf|
fe (3Bcd ec|1 d2 df ed|c3 e fg:|2 d2 de (3cBA|B4 BA||
|:FB f4|EA e4|DG d4|EA c3 A|B2 BA Bc|
dB cd cA|1 B2 fe de|ce ge cA:|2 B2 (3Bcd (3cBA|B3 c BA||

